www/static/img/overview/alert-banner.svg

<svg width="108" height="44" viewBox="0 0 108 44" fill="none" xmlns="http://www.w3.org/2000/svg">
<rect width="108" height="44" rx="4" fill="#005A7A"/>
<path d="M21.9985 29.5C21.1695 29.5 20.4985 28.829 20.4985 28C20.4985 27.171 21.1695 26.5 21.9985 26.5C22.8275 26.5 23.4985 27.171 23.4985 28C23.4985 28.829 22.8275 29.5 21.9985 29.5ZM20.9995 18C20.9995 17.448 21.4475 17 21.9995 17C22.5525 17 22.9995 17.448 22.9995 18V24C22.9995 24.552 22.5525 25 21.9995 25C21.4475 25 20.9995 24.552 20.9995 24V18ZM33.4195 26.502L25.7805 13.187C24.9955 11.817 23.5815 11 21.9995 11C20.4175 11 19.0045 11.817 18.2195 13.187L10.5805 26.502C9.80154 27.858 9.80554 29.476 10.5885 30.829C11.3755 32.188 12.7865 33 14.3605 33H29.6395C31.2135 33 32.6235 32.188 33.4115 30.829C34.1945 29.476 34.1985 27.858 33.4195 26.502Z" fill="white"/>
<rect x="43" y="12" width="53" height="6" rx="3" fill="white"/>
<rect x="43" y="25" width="38" height="6" rx="3" fill="white"/>
</svg>

<svg fill="none" height="44" viewBox="0 0 108 44" width="108" xmlns="http://www.w3.org/2000/svg"><rect fill="#005a7a" height="44" rx="4" width="108"/><g fill="#fff"><path d="m21.9985 29.5c-.829 0-1.5-.671-1.5-1.5s.671-1.5 1.5-1.5 1.5.671 1.5 1.5-.671 1.5-1.5 1.5zm-.999-11.5c0-.552.448-1 1-1 .553 0 1 .448 1 1v6c0 .552-.447 1-1 1-.552 0-1-.448-1-1zm12.42 8.502-7.639-13.315c-.785-1.37-2.199-2.187-3.781-2.187s-2.995.817-3.78 2.187l-7.639 13.315c-.77896 1.356-.77496 2.974.008 4.327.787 1.359 2.198 2.171 3.772 2.171h15.279c1.574 0 2.984-.812 3.772-2.171.783-1.353.787-2.971.008-4.327z"/><rect height="6" rx="3" width="53" x="43" y="12"/><rect height="6" rx="3" width="38" x="43" y="25"/></g></svg>
